release/img/photo_icon.svg

<svg width="58" height="58" viewBox="0 0 58 58" fill="none" xmlns="http://www.w3.org/2000/svg">
<path d="M45.7343 1.04051H12.2658C7.68723 1.04051 4 4.6872 4 9.26581V49.6524C4 54.231 7.68723 57.9182 12.2658 57.9182H45.7343C50.3129 57.9182 54 54.231 54 49.6524V9.26581C54 4.6872 50.3129 1 45.7343 1V1.04051ZM9.14595 49.8955C10.4831 43.9797 14.9806 37.5778 23.449 35.0656C16.5609 31.6215 14.9806 24.3282 16.5608 19.3039C18.1816 14.1985 23.2059 10.0251 29.4863 10.1872C34.8347 10.3493 39.8995 14.1175 41.4798 19.466C43.1005 24.8955 41.1151 31.7431 34.5105 35.0656C41.966 37.2942 47.355 42.9668 48.8542 49.8549C49.3404 51.9619 47.7602 53.9878 45.5722 53.9878H12.3874C10.2399 53.9878 8.65968 51.9619 9.10539 49.8549L9.14595 49.8955Z" fill="white"/>
</svg>

<svg xmlns="http://www.w3.org/2000/svg" width="58" height="58" fill="none" viewBox="0 0 58 58">
  <path fill="#fff" d="M45.734 1.04H12.266C7.687 1.04 4 4.688 4 9.267v40.386a8.249 8.249 0 0 0 8.266 8.266h33.468A8.248 8.248 0 0 0 54 49.652V9.266A8.248 8.248 0 0 0 45.734 1v.04ZM9.146 49.896c1.337-5.915 5.835-12.317 14.303-14.83-6.888-3.443-8.468-10.737-6.888-15.761 1.62-5.105 6.645-9.279 12.925-9.117 5.349.162 10.414 3.93 11.994 9.279 1.62 5.43-.365 12.277-6.97 15.6 7.456 2.228 12.845 7.9 14.344 14.789a3.365 3.365 0 0 1-3.282 4.133H12.387c-2.147 0-3.727-2.026-3.282-4.133l.04.04Z"/>
</svg>
